icons/op-custom-fields-16.svg

<svg width="16" height="16" viewBox="0 0 16 16" fill="none" xmlns="http://www.w3.org/2000/svg">
<g clip-path="url(#clip0_35_1809)">
<path d="M8.88889 14.3333V15.1667C8.88889 15.4028 8.80356 15.6008 8.63289 15.7608C8.46222 15.9208 8.25126 16.0006 8 16C7.74815 16 7.53689 15.92 7.36622 15.76C7.19556 15.6 7.11052 15.4022 7.11111 15.1667V11.8333C7.11111 11.5972 7.19644 11.3992 7.36711 11.2392C7.53778 11.0792 7.74874 10.9994 8 11C8.25185 11 8.46311 11.08 8.63378 11.24C8.80444 11.4 8.88948 11.5978 8.88889 11.8333V12.6667H15.1111C15.363 12.6667 15.5742 12.7467 15.7449 12.9067C15.9156 13.0667 16.0006 13.2644 16 13.5C16 13.7361 15.9147 13.9342 15.744 14.0942C15.5733 14.2542 15.3624 14.3339 15.1111 14.3333H8.88889ZM0.888892 14.3333C0.63704 14.3333 0.425781 14.2533 0.255114 14.0933C0.0844474 13.9333 -0.000589517 13.7356 3.07574e-06 13.5C3.07574e-06 13.2639 0.0853364 13.0658 0.256003 12.9058C0.42667 12.7458 0.637632 12.6661 0.888892 12.6667H4.44445C4.6963 12.6667 4.90756 12.7467 5.07822 12.9067C5.24889 13.0667 5.33393 13.2644 5.33333 13.5C5.33333 13.7361 5.248 13.9342 5.07733 14.0942C4.90667 14.2542 4.6957 14.3339 4.44445 14.3333H0.888892Z" fill="black"/>
<path fill-rule="evenodd" clip-rule="evenodd" d="M1.5 1.5V7.5H14.5V1.5H1.5ZM1 0C0.447715 0 0 0.447715 0 1V8C0 8.55229 0.447715 9 1 9H15C15.5523 9 16 8.55229 16 8V1C16 0.447715 15.5523 0 15 0H1Z" fill="#1F2328"/>
<path d="M3.70117 5.89453C3.30273 5.89453 3 5.63672 3 5.25977C3 4.87891 3.29297 4.6582 3.81641 4.62695L4.34375 4.5957V4.45703C4.34375 4.26172 4.20703 4.14844 3.99219 4.14844C3.81836 4.14844 3.71289 4.20508 3.58594 4.36914C3.52344 4.43945 3.45117 4.47461 3.35938 4.47461C3.2207 4.47461 3.12109 4.38477 3.12109 4.25586C3.12109 4.21094 3.13086 4.16992 3.15039 4.12695C3.24805 3.87695 3.58398 3.72266 4.01758 3.72266C4.55469 3.72266 4.9043 4 4.9043 4.42188V5.61523C4.9043 5.80469 4.78906 5.90234 4.62695 5.90234C4.47266 5.90234 4.36523 5.81641 4.35352 5.64844V5.54102H4.3418C4.22461 5.76367 3.96289 5.89453 3.70117 5.89453ZM3.88867 5.48242C4.13867 5.48242 4.34375 5.32031 4.34375 5.09375V4.94141L3.90234 4.96875C3.68945 4.98438 3.56836 5.08008 3.56836 5.22852C3.56836 5.38477 3.69727 5.48242 3.88867 5.48242Z" fill="black"/>
<path d="M5.58641 5.90234C5.42234 5.90234 5.30711 5.80469 5.30711 5.61328V3.29883C5.30711 3.10352 5.42625 3 5.59227 3C5.76023 3 5.87742 3.10352 5.87742 3.29883V4.13086H5.88914C6.00437 3.88281 6.23875 3.73438 6.53562 3.73438C7.06492 3.73438 7.38719 4.13867 7.38719 4.81445C7.38719 5.48828 7.06687 5.89453 6.53758 5.89453C6.23094 5.89453 5.99852 5.74609 5.88133 5.50195H5.86961V5.61328C5.86961 5.80273 5.75242 5.90234 5.58641 5.90234ZM6.34227 5.43555C6.62547 5.43555 6.8032 5.19727 6.8032 4.81445C6.8032 4.43359 6.62547 4.19141 6.34227 4.19141C6.06492 4.19141 5.87547 4.43945 5.87547 4.81445C5.87547 5.19336 6.06492 5.43555 6.34227 5.43555Z" fill="black"/>
<path d="M8.65914 5.90625C8.02828 5.90625 7.62789 5.49219 7.62789 4.81445C7.62789 4.14453 8.02633 3.72266 8.65523 3.72266C9.07516 3.72266 9.42477 3.92578 9.53805 4.22266C9.55758 4.27148 9.5693 4.32227 9.5693 4.36328C9.5693 4.50391 9.45992 4.58594 9.32516 4.58594C9.21187 4.58594 9.14352 4.54102 9.08492 4.4375C8.98141 4.25391 8.85445 4.16992 8.67281 4.16992C8.38375 4.16992 8.20602 4.4082 8.20602 4.8125C8.20602 5.22461 8.38375 5.45898 8.66891 5.45898C8.86812 5.45898 8.99117 5.36133 9.07906 5.21289C9.15523 5.09375 9.21773 5.04492 9.33883 5.04492C9.47164 5.04492 9.57906 5.13281 9.57906 5.27344C9.57906 5.31836 9.56734 5.36523 9.54195 5.42188C9.41695 5.70703 9.05953 5.90625 8.65914 5.90625Z" fill="black"/>
</g>
<defs>
<clipPath id="clip0_35_1809">
<rect width="16" height="16" fill="white"/>
</clipPath>
</defs>
</svg>

<svg xmlns="http://www.w3.org/2000/svg" width="16" height="16" viewBox="0 0 16 16"><path d="M8.889 14.333v.834a.78.78 0 0 1-.256.594.888.888 0 0 1-.627.239H8q-.378 0-.634-.24a.782.782 0 0 1-.255-.593v-3.334a.78.78 0 0 1 .256-.594A.886.886 0 0 1 8 11q.378 0 .634.24c.17.16.255.358.255.593v.834h6.222c.252 0 .463.08.634.24a.78.78 0 0 1 .255.588v.005a.78.78 0 0 1-.256.594.886.886 0 0 1-.633.239Zm-8 0a.892.892 0 0 1-.634-.24.776.776 0 0 1-.255-.59V13.5a.78.78 0 0 1 .256-.594.886.886 0 0 1 .633-.239h3.555a.89.89 0 0 1 .634.24c.171.16.256.357.255.593a.78.78 0 0 1-.256.594.883.883 0 0 1-.633.239ZM1 0h14a1 1 0 0 1 1 1v7a1 1 0 0 1-1 1H1a1 1 0 0 1-1-1V1a1 1 0 0 1 1-1Zm.5 1.5v6h13v-6Z"/><path d="M3.701 5.895C3.303 5.895 3 5.637 3 5.26c0-.381.293-.602.816-.633l.528-.031v-.139c0-.195-.137-.309-.352-.309-.174 0-.279.057-.406.221a.29.29 0 0 1-.227.106c-.138 0-.238-.09-.238-.219a.31.31 0 0 1 .029-.129c.098-.25.434-.404.868-.404.537 0 .886.277.886.699v1.193c0 .19-.115.287-.277.287-.154 0-.262-.086-.273-.254v-.107h-.012c-.117.223-.379.354-.641.354Zm.188-.413c.25 0 .455-.162.455-.388v-.153l-.442.028c-.213.015-.334.111-.334.26 0 .156.129.253.321.253Zm1.697.42c-.164 0-.279-.097-.279-.289V3.299c0-.195.119-.299.285-.299.168 0 .285.104.285.299v.832h.012a.684.684 0 0 1 .647-.397c.529 0 .851.405.851 1.08 0 .674-.32 1.081-.849 1.081-.307 0-.539-.149-.657-.393H5.87v.111c0 .19-.118.289-.284.289Zm.756-.466c.283 0 .461-.239.461-.622 0-.38-.178-.623-.461-.623-.277 0-.467.248-.467.623 0 .379.19.622.467.622Zm2.317.47c-.631 0-1.031-.414-1.031-1.092 0-.669.398-1.091 1.027-1.091.42 0 .77.203.883.5.02.048.031.099.031.14 0 .141-.109.223-.244.223-.113 0-.181-.045-.24-.148-.104-.184-.231-.268-.412-.268-.289 0-.467.238-.467.642 0 .413.178.647.463.647.199 0 .322-.098.41-.246.076-.119.139-.168.26-.168.133 0 .24.088.24.228a.369.369 0 0 1-.037.149c-.125.285-.482.484-.883.484Z"/></svg>
